#define _width 128
#define _height 64
static char _bits[] = {
 0x48,0x55,0xa9,0xa2,0x94,0x7a,0xff,0x7f,0xff,0xd7,0xff,0xab,0xff,0xab,0x4a,
 0x49,0xd2,0xaa,0x52,0x4a,0xa5,0xa4,0xfe,0x5f,0xff,0xaa,0xff,0xd7,0xff,0x56,
 0x52,0x92,0x94,0xaa,0xa4,0x54,0x2a,0x55,0xfd,0x5f,0xfb,0xd6,0xff,0x35,0x7f,
 0xab,0xaa,0x24,0x61,0x55,0x29,0x91,0xaa,0xd2,0xee,0xb3,0xff,0xd5,0x77,0xcf,
 0xff,0xab,0x54,0x55,0x94,0x2a,0x55,0xa5,0x52,0x95,0xf6,0xae,0x6a,0xd5,0xbf,
 0xab,0xad,0xaa,0x4a,0x25,0x52,0x48,0x49,0xaa,0x94,0xa8,0x56,0x53,0x75,0x55,
 0xd5,0x55,0x7d,0x95,0xaa,0xaa,0x84,0x2a,0x52,0x91,0x6a,0xa5,0xa8,0xca,0xee,
 0xaa,0x76,0x55,0xab,0x55,0x45,0x55,0x29,0x45,0x55,0x4a,0x79,0x7e,0xdf,0xbf,
 0x9a,0x6a,0xad,0xd6,0x6a,0x55,0x59,0x95,0x6a,0xa9,0xa4,0x92,0xce,0xef,0xff,
 0x9f,0xaa,0xd6,0x6a,0x95,0x9a,0xaa,0xa2,0x22,0x14,0x55,0xa9,0x2a,0xf9,0xfb,
 0xdd,0xba,0xaa,0x2a,0xab,0x6a,0x55,0x55,0x4d,0x4c,0xa5,0x22,0x55,0x52,0xaa,
 0x56,0x6b,0x5f,0x55,0x55,0x55,0x55,0x55,0x55,0x52,0x91,0x54,0x54,0x52,0xc5,
 0xdf,0xba,0xd6,0x5a,0xb5,0x55,0x55,0xd5,0x6a,0x55,0x95,0x26,0x49,0xa5,0x54,
 0xb5,0xb2,0xd7,0xbd,0xbf,0xaa,0xaa,0x6d,0xbb,0xd6,0xad,0xaa,0xaa,0x52,0x4a,
 0x55,0xdb,0x6f,0x7d,0xf7,0xdf,0xb6,0xdd,0xda,0xd6,0x3a,0xdb,0x4a,0x55,0xa4,
 0x92,0x8a,0x62,0x51,0xe2,0xf4,0xb0,0x05,0x36,0x2a,0xb0,0x69,0xb4,0xaa,0x12,
 0x49,0x24,0x05,0xe2,0x63,0x40,0x60,0x60,0x03,0x58,0x38,0xc0,0x18,0xa0,0x95,
 0xa4,0xaa,0xaa,0xa2,0xe3,0xe1,0xe7,0xe7,0xc7,0xc6,0x38,0x38,0x86,0x31,0xc2,
 0x2a,0x55,0x52,0x52,0xc1,0x63,0xe0,0xe3,0xe1,0xa3,0x47,0x1c,0x31,0x8e,0x18,
 0xc7,0xab,0x12,0x2a,0x95,0x06,0x62,0xe2,0xf1,0xf0,0xf0,0x02,0x1e,0x31,0x8e,
 0x11,0x47,0x7f,0xad,0x49,0x52,0x3d,0x22,0xc0,0xf1,0xc7,0xbc,0x47,0x0c,0x30,
 0x86,0x18,0xc7,0xd5,0xff,0x92,0x54,0x03,0x62,0xe2,0x78,0x60,0xe0,0x45,0x8c,
 0x62,0xc0,0x31,0x60,0xbf,0x52,0xaa,0x92,0x00,0xe3,0xe3,0x58,0x70,0x40,0xc7,
 0x88,0x23,0xf0,0x78,0xd0,0x55,0xad,0x24,0xa5,0xfe,0xff,0xff,0xff,0xff,0xff,
 0xfe,0xff,0xff,0xbf,0xf7,0xff,0x6b,0x6b,0x49,0x2a,0x55,0xff,0xff,0xff,0xdf,
 0x6e,0xfd,0xff,0xff,0xef,0xdb,0xb7,0xd6,0xaa,0x92,0x50,0xb5,0xd5,0xbd,0xf7,
 0xff,0xbb,0xdb,0xf6,0xff,0xfe,0x7d,0xdb,0xad,0xaa,0xa4,0x8a,0x6a,0xeb,0xef,
 0x5d,0xbb,0x6f,0xb5,0xff,0xdf,0xff,0xeb,0xbe,0xaa,0x56,0x49,0x24,0x55,0xf5,
 0x7e,0xf7,0xef,0xba,0xea,0xfa,0xf6,0xff,0xaa,0x6d,0x6d,0xb5,0x92,0x4a,0xa9,
 0x6a,0xdb,0xbf,0xba,0xaf,0xba,0x95,0xdd,0xaa,0x55,0x5b,0xdb,0x6a,0x48,0x50,
 0x4a,0xd2,0xef,0x6a,0xab,0x50,0x6d,0x77,0x6b,0x5b,0xe9,0xb6,0x55,0xad,0x82,
 0x4a,0x95,0xa4,0x90,0x44,0x24,0xab,0x74,0xad,0xd6,0x76,0xd5,0x6d,0x5b,0xab,
 0x28,0x92,0x90,0x2a,0x25,0x29,0x55,0x94,0x5a,0xdb,0xbd,0xca,0x69,0xbf,0xb6,
 0x6d,0x91,0x24,0x2a,0x40,0x14,0x42,0x52,0x25,0xd5,0xb6,0xab,0xbd,0xd2,0xea,
 0xaf,0xda,0x04,0x4a,0x41,0x9b,0xa2,0x94,0x8a,0x4a,0xda,0xed,0xff,0x52,0xb5,
 0x55,0xfd,0xb7,0x51,0x22,0x2a,0x22,0x59,0x29,0x55,0xa8,0x54,0xff,0xff,0x6e,
 0x49,0xdd,0xaa,0x7d,0x84,0x48,0x44,0x55,0xa2,0x42,0x95,0x25,0xad,0x7d,0xfb,
 0xd5,0xb2,0x55,0x55,0xeb,0x11,0x11,0xa9,0x48,0x49,0x94,0x24,0x4a,0x6a,0x53,
 0xad,0x5a,0xa9,0xaa,0x6d,0x55,0x24,0xa4,0x12,0x97,0x04,0x21,0x92,0x90,0x54,
 0xd5,0xaa,0xb5,0x52,0x6d,0x55,0xad,0x91,0x12,0xe4,0x4f,0x50,0x94,0xa4,0x26,
 0x21,0x0a,0x55,0xad,0xa2,0xab,0xaa,0x5a,0x44,0xa0,0xe9,0x13,0x85,0x52,0x55,
 0x29,0x95,0x50,0x24,0x22,0x49,0x54,0x6d,0xab,0x11,0x15,0xb2,0x4a,0x52,0x44,
 0x95,0xaa,0x2a,0x85,0x92,0x48,0x92,0x48,0xab,0x6a,0x44,0x40,0x45,0x91,0x84,
 0x92,0xa0,0x4a,0x4a,0x51,0x44,0x92,0x24,0xa5,0x68,0x5b,0x12,0x15,0x91,0x0a,
 0x91,0x78,0x2b,0x94,0x12,0x04,0x29,0x49,0x92,0x08,0x85,0xd4,0x48,0x40,0x2a,
 0x60,0x22,0x52,0xad,0xa2,0xa4,0x52,0x82,0x24,0x49,0x52,0x28,0x92,0x01,0x95,
 0x40,0x95,0x44,0x42,0x29,0x94,0x0a,0x88,0xa8,0x4a,0x92,0x88,0x42,0x21,0xaa,
 0x20,0x15,0x29,0x89,0x28,0x92,0xe2,0xa1,0x22,0x55,0x92,0x4a,0x2b,0x29,0x8a,
 0x10,0x15,0xc8,0x42,0x12,0x52,0x25,0xad,0x0b,0x44,0xaa,0xaa,0x50,0x6a,0x55,
 0x10,0x45,0xa0,0xaa,0x9a,0x48,0x82,0x54,0x12,0xa4,0x88,0xa4,0x54,0xab,0xaa,
 0x8a,0xa5,0x28,0x95,0x52,0x21,0xa5,0x54,0x42,0x48,0x41,0x52,0x5a,0x89,0x54,
 0x55,0x35,0x15,0x85,0xa0,0xb4,0x4a,0x12,0x21,0x14,0xa5,0x16,0x01,0xf9,0x53,
 0x82,0x92,0x44,0x40,0x10,0x0a,0x09,0x10,0xa9,0x8a,0xa0,0x80,0x20,0x54,0xf8,
 0x2f,0x5d,0xa4,0x2a,0x15,0xa2,0x50,0xa9,0x4a,0x2a,0x29,0x05,0x2a,0x8a,0x80,
 0xd2,0x53,0x52,0x95,0x90,0x20,0x04,0x22,0x02,0xa4,0x74,0x44,0xa9,0x80,0x20,
 0x2a,0x04,0x94,0x4a,0x52,0x0a,0x4a,0xa9,0x94,0xa4,0x00,0x00,0x82,0x10,0x11,
 0x04,0x01,0x91,0x20,0x94,0x88,0xa2,0x10,0xaa,0x48,0x08,0x15,0x25,0x51,0x22,
 0x44,0x90,0x10,0x20,0x0a,0x41,0x22,0x09,0x42,0x2a,0x93,0x22,0x40,0x00,0x00,
 0x04,0x11,0x02,0x40,0x04,0x41,0x04,0x10,0xa2,0x14,0xd4,0x14,0x88,0x14,0xa8,
 0x54,0x21,0x40,0x00,0x0a,0x01,0x00,0x20,0x41,0x08,0x41,0x15,0xa1,0x01,0x40,
 0x01,0x02,0x44,0x15,0x48,0x40,0x20,0x94,0x04,0x24,0x25,0x14,0xa2,0x54,0x94,
 0x21,0x34,0xb5,0x0a,0x20,0x02,0x08,0x06,0x01,0x40,0x80,0x40,0x41,0x14,0x01,
 0x81,0xc9,0xf8,0xf7,0x96,0xa4,0xa8,0x82,0x24,0x80,0x04,0x49,0x0a,0x8a,0xa1,
 0x54,0xd0,0xdc,0xa0,0x4d,0x4f,0xb0,0x77,0xff,0xff,0xd3,0xfb,0x03,0x50,0x50,
 0x14,0x21,0x82,0xc6,0xbc,0x75,0x8a,0xf3,0xff,0xbd,0xd6,0x66,0x6f,0x43,0x82,
 0x02,0x22,0x94,0xc8,0xdd,0x38,0xf7,0x0f,0xb0,0x5b,0xef,0xdf,0xdb,0xed,0x13,
 0x14,0x54,0x54,0x09,0x82,0x69,0x40,0x08,0x20,0x34,0x20,0x0a,0x00,0x24,0x41,
 0x03,0x41,0x91,0x05,0xa2,0x10,0x00,0x15,0x01,0x00,0x91,0x84,0x2c,0x50,0x80,
 0xc8,0x00,0x14,0x56 };
